%
O0009(MOTOR CAN)
(Machine);
(  vendor: Invention Studio @ GT);
(  model: Bridgeport - GX 480);
(  description: Vertical Machining Center);
(T2 - ZMIN=-0.0937 - );
(T3 - ZMIN=-0.0312 - );
(T4 - ZMIN=-1.0112 - Roughing End Mill);
(T8 - ZMIN=-0.7613 - 4F SE Mill);
(T10 - ZMIN=-0.0713 - 4F 45deg Chamfer Mill);
(T11 - ZMIN=-0.3125 - 1/8);
(T12 - ZMIN=-1.5689 - 1/4);
N10G90G17;
N11G20;
(Face2);
N12M09(COOLANT OFF);
N13M05(SPINDLE STOP);
N14G91G30Z0.;
N15T3M6;
N16T2;
N17G54G94;
N18G90G0X4.24Y-1.23;
N19G43Z1.H3;
N20M1(CHECK TOOL HEIGHT);
N21M8;
N22S4000M3(SPINDLE CW 4000RPM);
N23Z0.2688;
N24G18G3X3.94Z-0.0312R0.3F20.;
N25G1X2.29F50.;
N26X0.;
N27G3X-0.3Z0.2688R0.3;
N28G0Z1.;
(END OF SECTION)
N29G17;
(Drill1);
N30M09(COOLANT OFF);
N31M05(SPINDLE STOP);
N32G91G30Z0.;
N33M1(CHECK COMPLETION OF OP);
N34T2M6;
N35T12;
N36G54;
N37G90G0X1.145Y-0.8629;
N38G43Z1.H2;
N39M1(CHECK TOOL HEIGHT);
N40M8;
N41S7000M3(SPINDLE CW 7000RPM);
N42G17;
N43G0Z0.5;
N44G81X1.145Y-0.8629Z-0.0937R0.1688F21.;
N45X0.7779Y-1.23;
N46X1.145;
N47X1.5121;
N48X1.145Y-1.5971;
N49G80;
N50Z1.;
(END OF SECTION)
(Drill5);
N51M09(COOLANT OFF);
N52M05(SPINDLE STOP);
N53G91G30Z0.;
N54M1(CHECK COMPLETION OF OP);
N55T12M6;
N56T11;
N57G54;
N58G90G0X1.145Y-1.23;
N59G43Z1.H12;
N60M1(CHECK TOOL HEIGHT);
N61M9;
N62S1000M3(SPINDLE CW 1000RPM);
N63G17;
N64G0Z0.5;
N65G73X1.145Y-1.23Z-1.5689R-0.1813Q0.0625F40.;
N66G80;
N67Z1.;
(END OF SECTION)
(Drill4);
N68M09(COOLANT OFF);
N69M05(SPINDLE STOP);
N70G91G30Z0.;
N71M1(CHECK COMPLETION OF OP);
N72T11M6;
N73T8;
N74G54;
N75G90G0X1.145Y-1.5971;
N76G43Z1.H11;
N77M1(CHECK TOOL HEIGHT);
N78M9;
N79S1000M3(SPINDLE CW 1000RPM);
N80G17;
N81G0Z0.5;
N82G73X1.145Y-1.5971Z-0.3125R0.1688Q0.0312F40.;
N83X1.5121Y-1.23;
N84X1.145Y-0.8629;
N85X0.7779Y-1.23;
N86G80;
N87Z1.;
(END OF SECTION)
(Circular2);
N88M09(COOLANT OFF);
N89M05(SPINDLE STOP);
N90G91G30Z0.;
N91M1(CHECK COMPLETION OF OP);
N92T8M6;
N93T4;
N94G54;
N95G90G0X1.1763Y-1.255;
N96G43Z1.H8;
N97M1(CHECK TOOL HEIGHT);
N98M8;
N99S4584M3(SPINDLE CW 4584RPM);
N100Z-0.0013;
N101G1Z-0.0563F20.;
N102G18G2X1.2012Z-0.0813R0.025;
N103G1X1.2138;
N104G17G3X1.2388Y-1.23R0.025;
N105X1.0512R0.0938F11.4592;
N106X1.2388R0.0938;
N107X1.2138Y-1.205R0.025F20.;
N108G1X1.2012;
N109G18G3X1.1763Z-0.0563R0.025;
N110G0Z1.;
N111Y-1.255;
N112Z0.5;
N113Z-0.0512;
N114G1Z-0.1063F20.;
N115G2X1.2012Z-0.1313R0.025;
N116G1X1.2138;
N117G17G3X1.2388Y-1.23R0.025;
N118X1.0512R0.0938F11.4592;
N119X1.2388R0.0938;
N120X1.2138Y-1.205R0.025F20.;
N121G1X1.2012;
N122G18G3X1.1763Z-0.1063R0.025;
N123G0Z1.;
N124Y-1.255;
N125Z0.5;
N126Z-0.1012;
N127G1Z-0.1563F20.;
N128G2X1.2012Z-0.1813R0.025;
N129G1X1.2138;
N130G17G3X1.2388Y-1.23R0.025;
N131X1.0512R0.0938F11.4592;
N132X1.2388R0.0938;
N133X1.2138Y-1.205R0.025F20.;
N134G1X1.2012;
N135G18G3X1.1763Z-0.1563R0.025;
N136G0Z1.;
N137Y-1.255;
N138Z0.5;
N139Z-0.1512;
N140G1Z-0.2062F20.;
N141G2X1.2012Z-0.2313R0.025;
N142G1X1.2138;
N143G17G3X1.2388Y-1.23R0.025;
N144X1.0512R0.0938F11.4592;
N145X1.2388R0.0938;
N146X1.2138Y-1.205R0.025F20.;
N147G1X1.2012;
N148G18G3X1.1763Z-0.2062R0.025;
N149G0Z1.;
N150Y-1.255;
N151Z0.5;
N152Z-0.2013;
N153G1Z-0.2562F20.;
N154G2X1.2012Z-0.2813R0.025;
N155G1X1.2138;
N156G17G3X1.2388Y-1.23R0.025;
N157X1.0512R0.0938F11.4592;
N158X1.2388R0.0938;
N159X1.2138Y-1.205R0.025F20.;
N160G1X1.2012;
N161G18G3X1.1763Z-0.2562R0.025;
N162G0Z1.;
N163Y-1.255;
N164Z0.5;
N165Z-0.2513;
N166G1Z-0.3062F20.;
N167G2X1.2012Z-0.3312R0.025;
N168G1X1.2138;
N169G17G3X1.2388Y-1.23R0.025;
N170X1.0512R0.0938F11.4592;
N171X1.2388R0.0938;
N172X1.2138Y-1.205R0.025F20.;
N173G1X1.2012;
N174G18G3X1.1763Z-0.3062R0.025;
N175G0Z1.;
N176Y-1.255;
N177Z0.5;
N178Z-0.3013;
N179G1Z-0.3562F20.;
N180G2X1.2012Z-0.3813R0.025;
N181G1X1.2138;
N182G17G3X1.2388Y-1.23R0.025;
N183X1.0512R0.0938F11.4592;
N184X1.2388R0.0938;
N185X1.2138Y-1.205R0.025F20.;
N186G1X1.2012;
N187G18G3X1.1763Z-0.3562R0.025;
N188G0Z1.;
(END OF SECTION)
N189G17;
(Circular1);
N190M09(COOLANT OFF);
N191M05(SPINDLE STOP);
N192G91G30Z0.;
N193M1(CHECK COMPLETION OF OP);
N194T4M6;
N195T8;
N196G54;
N197G90G0X3.1271Y-1.33;
N198G43Z1.H4;
N199M1(CHECK TOOL HEIGHT);
N200M8;
N201S3000M3(SPINDLE CW 3000RPM);
N202Z-0.3062;
N203G18G3X3.0271Z-0.4063R0.1F20.;
N204G1X2.7771;
N205G17G2X2.6771Y-1.23R0.1;
N206G3X-0.3871R1.5321F50.;
N207X2.6771R1.5321;
N208G2X2.7771Y-1.13R0.1F20.;
N209G1X3.0271;
N210G18G2X3.1271Z-0.3062R0.1;
N211G0Z0.5;
N212X2.6271Y-1.33;
N213Z-0.3062;
N214G3X2.5271Z-0.4063R0.1F20.;
N215G1X2.2771;
N216G17G2X2.1771Y-1.23R0.1;
N217G3X0.1129R1.0321F50.;
N218X2.1771R1.0321;
N219G2X2.2771Y-1.13R0.1F20.;
N220G1X2.5271;
N221G18G2X2.6271Z-0.3062R0.1;
N222G0Z1.;
N223X3.1271Y-1.33;
N224Z0.5;
N225Z-0.6413;
N226G3X3.0271Z-0.7412R0.1F20.;
N227G1X2.7771;
N228G17G2X2.6771Y-1.23R0.1;
N229G3X-0.3871R1.5321F50.;
N230X2.6771R1.5321;
N231G2X2.7771Y-1.13R0.1F20.;
N232G1X3.0271;
N233G18G2X3.1271Z-0.6413R0.1;
N234G0Z0.5;
N235X2.6271Y-1.33;
N236Z-0.6413;
N237G3X2.5271Z-0.7412R0.1F20.;
N238G1X2.2771;
N239G17G2X2.1771Y-1.23R0.1;
N240G3X0.1129R1.0321F50.;
N241X2.1771R1.0321;
N242G2X2.2771Y-1.13R0.1F20.;
N243G1X2.5271;
N244G18G2X2.6271Z-0.6413R0.1;
N245G0Z1.;
(END OF SECTION)
N246G17;
(Circular3);
N247G54;
N248G0X2.965Y-1.13;
N249Z1.;
N250Z-0.7863;
N251G18G3X2.865Z-0.8862R0.1F20.;
N252G1X2.815;
N253G17G3X2.715Y-1.23R0.1;
N254G2X-0.425R1.57F50.;
N255X2.715R1.57;
N256G3X2.815Y-1.33R0.1F20.;
N257G1X2.865;
N258G18G2X2.965Z-0.7863R0.1;
N259G0Z1.;
N260Y-1.13;
N261Z0.5;
N262Z-0.9113;
N263G3X2.865Z-1.0112R0.1F20.;
N264G1X2.815;
N265G17G3X2.715Y-1.23R0.1;
N266G2X-0.425R1.57F50.;
N267X2.715R1.57;
N268G3X2.815Y-1.33R0.1F20.;
N269G1X2.865;
N270G18G2X2.965Z-0.9113R0.1;
N271G0Z1.;
(END OF SECTION)
N272G17;
(Circular4);
N273M09(COOLANT OFF);
N274M05(SPINDLE STOP);
N275G91G30Z0.;
N276M1(CHECK COMPLETION OF OP);
N277T8M6;
N278T10;
N279G54;
N280G90G0X1.8246Y-1.205;
N281G43Z1.H8;
N282M1(CHECK TOOL HEIGHT);
N283M8;
N284S4584M3(SPINDLE CW 4584RPM);
N285Z-0.0013;
N286G1Z-0.0563F20.;
N287G18G3X1.7996Z-0.0813R0.025;
N288G1X1.7871;
N289G17G3X1.7621Y-1.23R0.025;
N290G2X0.5279R0.6171F11.4592;
N291X1.7621R0.6171;
N292G3X1.7871Y-1.255R0.025F20.;
N293G1X1.7996;
N294G18G2X1.8246Z-0.0563R0.025;
N295G0Z1.;
N296Y-1.205;
N297Z0.5;
N298Z-0.0512;
N299G1Z-0.1063F20.;
N300G3X1.7996Z-0.1313R0.025;
N301G1X1.7871;
N302G17G3X1.7621Y-1.23R0.025;
N303G2X0.5279R0.6171F11.4592;
N304X1.7621R0.6171;
N305G3X1.7871Y-1.255R0.025F20.;
N306G1X1.7996;
N307G18G2X1.8246Z-0.1063R0.025;
N308G0Z1.;
N309Y-1.205;
N310Z0.5;
N311Z-0.1012;
N312G1Z-0.1563F20.;
N313G3X1.7996Z-0.1813R0.025;
N314G1X1.7871;
N315G17G3X1.7621Y-1.23R0.025;
N316G2X0.5279R0.6171F11.4592;
N317X1.7621R0.6171;
N318G3X1.7871Y-1.255R0.025F20.;
N319G1X1.7996;
N320G18G2X1.8246Z-0.1563R0.025;
N321G0Z1.;
N322Y-1.205;
N323Z0.5;
N324Z-0.1512;
N325G1Z-0.2062F20.;
N326G3X1.7996Z-0.2313R0.025;
N327G1X1.7871;
N328G17G3X1.7621Y-1.23R0.025;
N329G2X0.5279R0.6171F11.4592;
N330X1.7621R0.6171;
N331G3X1.7871Y-1.255R0.025F20.;
N332G1X1.7996;
N333G18G2X1.8246Z-0.2062R0.025;
N334G0Z1.;
N335Y-1.205;
N336Z0.5;
N337Z-0.2013;
N338G1Z-0.2562F20.;
N339G3X1.7996Z-0.2813R0.025;
N340G1X1.7871;
N341G17G3X1.7621Y-1.23R0.025;
N342G2X0.5279R0.6171F11.4592;
N343X1.7621R0.6171;
N344G3X1.7871Y-1.255R0.025F20.;
N345G1X1.7996;
N346G18G2X1.8246Z-0.2562R0.025;
N347G0Z1.;
N348Y-1.205;
N349Z0.5;
N350Z-0.2513;
N351G1Z-0.3062F20.;
N352G3X1.7996Z-0.3312R0.025;
N353G1X1.7871;
N354G17G3X1.7621Y-1.23R0.025;
N355G2X0.5279R0.6171F11.4592;
N356X1.7621R0.6171;
N357G3X1.7871Y-1.255R0.025F20.;
N358G1X1.7996;
N359G18G2X1.8246Z-0.3062R0.025;
N360G0Z1.;
N361Y-1.205;
N362Z0.5;
N363Z-0.3013;
N364G1Z-0.3562F20.;
N365G3X1.7996Z-0.3813R0.025;
N366G1X1.7871;
N367G17G3X1.7621Y-1.23R0.025;
N368G2X0.5279R0.6171F11.4592;
N369X1.7621R0.6171;
N370G3X1.7871Y-1.255R0.025F20.;
N371G1X1.7996;
N372G18G2X1.8246Z-0.3562R0.025;
N373G0Z1.;
N374Y-1.205;
N375Z0.5;
N376Z-0.3513;
N377G1Z-0.4063F20.;
N378G3X1.7996Z-0.4312R0.025;
N379G1X1.7871;
N380G17G3X1.7621Y-1.23R0.025;
N381G2X0.5279R0.6171F11.4592;
N382X1.7621R0.6171;
N383G3X1.7871Y-1.255R0.025F20.;
N384G1X1.7996;
N385G18G2X1.8246Z-0.4063R0.025;
N386G0Z1.;
N387Y-1.205;
N388Z0.5;
N389Z-0.4012;
N390G1Z-0.4562F20.;
N391G3X1.7996Z-0.4813R0.025;
N392G1X1.7871;
N393G17G3X1.7621Y-1.23R0.025;
N394G2X0.5279R0.6171F11.4592;
N395X1.7621R0.6171;
N396G3X1.7871Y-1.255R0.025F20.;
N397G1X1.7996;
N398G18G2X1.8246Z-0.4562R0.025;
N399G0Z1.;
N400Y-1.205;
N401Z0.5;
N402Z-0.4513;
N403G1Z-0.5063F20.;
N404G3X1.7996Z-0.5312R0.025;
N405G1X1.7871;
N406G17G3X1.7621Y-1.23R0.025;
N407G2X0.5279R0.6171F11.4592;
N408X1.7621R0.6171;
N409G3X1.7871Y-1.255R0.025F20.;
N410G1X1.7996;
N411G18G2X1.8246Z-0.5063R0.025;
N412G0Z1.;
N413Y-1.205;
N414Z0.5;
N415Z-0.5012;
N416G1Z-0.5562F20.;
N417G3X1.7996Z-0.5813R0.025;
N418G1X1.7871;
N419G17G3X1.7621Y-1.23R0.025;
N420G2X0.5279R0.6171F11.4592;
N421X1.7621R0.6171;
N422G3X1.7871Y-1.255R0.025F20.;
N423G1X1.7996;
N424G18G2X1.8246Z-0.5562R0.025;
N425G0Z1.;
N426Y-1.205;
N427Z0.5;
N428Z-0.5512;
N429G1Z-0.6063F20.;
N430G3X1.7996Z-0.6313R0.025;
N431G1X1.7871;
N432G17G3X1.7621Y-1.23R0.025;
N433G2X0.5279R0.6171F11.4592;
N434X1.7621R0.6171;
N435G3X1.7871Y-1.255R0.025F20.;
N436G1X1.7996;
N437G18G2X1.8246Z-0.6063R0.025;
N438G0Z1.;
N439Y-1.205;
N440Z0.5;
N441Z-0.6013;
N442G1Z-0.6563F20.;
N443G3X1.7996Z-0.6812R0.025;
N444G1X1.7871;
N445G17G3X1.7621Y-1.23R0.025;
N446G2X0.5279R0.6171F11.4592;
N447X1.7621R0.6171;
N448G3X1.7871Y-1.255R0.025F20.;
N449G1X1.7996;
N450G18G2X1.8246Z-0.6563R0.025;
N451G0Z1.;
N452Y-1.205;
N453Z0.5;
N454Z-0.6413;
N455G1Z-0.6962F20.;
N456G3X1.7996Z-0.7212R0.025;
N457G1X1.7871;
N458G17G3X1.7621Y-1.23R0.025;
N459G2X0.5279R0.6171F11.4592;
N460X1.7621R0.6171;
N461G3X1.7871Y-1.255R0.025F20.;
N462G1X1.7996;
N463G18G2X1.8246Z-0.6962R0.025;
N464G0Z1.;
N465Y-1.205;
N466Z0.5;
N467Z-0.6812;
N468G1Z-0.7363F20.;
N469G3X1.7996Z-0.7613R0.025;
N470G1X1.7871;
N471G17G3X1.7621Y-1.23R0.025;
N472G2X0.5279R0.6171F11.4592;
N473X1.7621R0.6171;
N474G3X1.7871Y-1.255R0.025F20.;
N475G1X1.7996;
N476G18G2X1.8246Z-0.7363R0.025;
N477G0Z1.;
(END OF SECTION)
N478G17;
(2D Pocket1);
N479G54;
N480G0X1.8631Y-1.4173;
N481Z1.;
N482Z-0.5738;
N483G2X1.8628Y-1.4184Z-0.5813R0.7421F5.;
N484X1.8619Y-1.4217Z-0.5882R0.7421;
N485X1.8606Y-1.4268Z-0.5937R0.7421;
N486X1.8587Y-1.4333Z-0.5973R0.7421;
N487X1.8566Y-1.4405Z-0.5988R0.7421;
N488X0.4334Y-1.0195Z-0.6802R0.7421;
N489X0.5513Y-0.7847Z-0.6894R0.7421;
N490X0.5526Y-0.783Z-0.6895R0.7421;
N491X1.588Y-0.6346Z-0.73R0.7421;
N492X1.7387Y-0.7847R0.7421F11.4592;
N493X0.5513Y-1.6753R0.7421;
N494Y-0.7847R0.7421;
N495X0.5526Y-0.783R0.7421;
N496X1.588Y-0.6346R0.7421;
N497G3X1.6068Y-0.6193R0.0125;
N498G1X1.4736Y-0.3346;
N499G3X1.4665Y-0.3281R0.0125;
N500X0.8235Y-2.1319R0.9575;
N501X1.4665Y-0.3281R0.9575;
N502X1.4523Y-0.3473R0.0125;
N503G1X2.0786Y-1.1872;
N504G3X2.1011Y-1.179R0.0125;
N505X1.6721Y-0.4306Z-0.7613R0.9575F5.;
N506X0.6179Y-2.0294R0.9575F11.4592;
N507X1.6721Y-0.4306R0.9575;
N508X1.6547Y-0.4343R0.0125;
N509G1X1.5516Y-0.5944;
N510G3X1.5552Y-0.6116R0.0125;
N511G2X1.7387Y-0.7847R0.7421;
N512X0.5513Y-1.6753R0.7421;
N513Y-0.7847R0.7421;
N514X0.5526Y-0.783R0.7421;
N515X1.5552Y-0.6116R0.7421;
N516G3X1.5622Y-0.6148Z-0.76R0.025F20.;
N517X1.5691Y-0.6157Z-0.7565R0.025;
N518X1.5746Y-0.6151Z-0.7509R0.025;
N519X1.578Y-0.6141Z-0.744R0.025;
N520X1.5791Y-0.6136Z-0.7363R0.025;
N521G0Z1.;
(END OF SECTION)
(2D Contour5);
N522M09(COOLANT OFF);
N523M05(SPINDLE STOP);
N524G91G30Z0.;
N525M1(CHECK COMPLETION OF OP);
N526T10M6;
N527T3;
N528G54;
N529G90G0X1.1325Y-0.6704;
N530G43Z1.H10;
N531M1(CHECK TOOL HEIGHT);
N532M8;
N533S9000M3(SPINDLE CW 9000RPM);
N534Z0.0394;
N535G1Z-0.0588F13.3333;
N536G19G2Y-0.6829Z-0.0712R0.0125;
N537G1Y-0.6954F40.;
N538G17G3X1.145Y-0.7079R0.0125;
N539G2Y-1.7521R0.5221;
N540X0.7763Y-1.5997R0.5221;
N541X0.7273Y-0.9167R0.5221;
N542X1.145Y-0.7079R0.5221;
N543G3X1.1575Y-0.6954R0.0125;
N544G1Y-0.6829;
N545G19G3Y-0.6704Z-0.0588R0.0125;
N546G0Z0.5;
N547X1.2963Y-1.2425;
N548Z0.0394;
N549G1Z-0.0588F13.3333;
N550X1.2966Z-0.0615;
N551X1.2975Z-0.0642;
N552X1.299Z-0.0665;
N553X1.301Z-0.0685;
N554X1.3033Z-0.07;
N555X1.306Z-0.0709;
N556X1.3088Z-0.0712;
N557X1.3213F40.;
N558G17G3X1.3338Y-1.23R0.0125;
N559X0.9562R0.1888;
N560X1.3338R0.1888;
N561X1.3213Y-1.2175R0.0125;
N562G1X1.3088;
N563X1.306Z-0.0709;
N564X1.3033Z-0.07;
N565X1.301Z-0.0685;
N566X1.299Z-0.0665;
N567X1.2975Z-0.0642;
N568X1.2966Z-0.0615;
N569X1.2963Z-0.0588;
N570G0Z0.5;
N571X1.1335Y-0.8699;
N572Z0.0394;
N573G1Z-0.0588F13.3333;
N574X1.1338Y-0.8701Z-0.0615;
N575X1.1345Y-0.8706Z-0.0642;
N576X1.1357Y-0.8715Z-0.0665;
N577X1.1373Y-0.8727Z-0.0685;
N578X1.1392Y-0.8741Z-0.07;
N579X1.1413Y-0.8757Z-0.0709;
N580X1.1435Y-0.8774Z-0.0712;
N581X1.1535Y-0.8849F40.;
N582G3X1.171Y-0.8824R0.0125;
N583X1.119Y-0.8434R0.0325;
N584X1.171Y-0.8824R0.0325;
N585X1.1685Y-0.8649R0.0125;
N586G1X1.1585Y-0.8574;
N587X1.1563Y-0.8557Z-0.0709;
N588X1.1542Y-0.8541Z-0.07;
N589X1.1523Y-0.8527Z-0.0685;
N590X1.1507Y-0.8515Z-0.0665;
N591X1.1495Y-0.8506Z-0.0642;
N592X1.1488Y-0.8501Z-0.0615;
N593X1.1485Y-0.8499Z-0.0588;
N594G0Z0.5;
N595X0.7664Y-1.237;
N596Z0.0394;
N597G1Z-0.0588F13.3333;
N598X0.7666Y-1.2372Z-0.0615;
N599X0.7674Y-1.2377Z-0.0642;
N600X0.7686Y-1.2386Z-0.0665;
N601X0.7701Y-1.2398Z-0.0685;
N602X0.772Y-1.2412Z-0.07;
N603X0.7741Y-1.2428Z-0.0709;
N604X0.7764Y-1.2445Z-0.0712;
N605X0.7864Y-1.252F40.;
N606G3X0.8039Y-1.2495R0.0125;
N607X0.7519Y-1.2105R0.0325;
N608X0.8039Y-1.2495R0.0325;
N609X0.8014Y-1.232R0.0125;
N610G1X0.7914Y-1.2245;
N611X0.7891Y-1.2228Z-0.0709;
N612X0.787Y-1.2212Z-0.07;
N613X0.7851Y-1.2198Z-0.0685;
N614X0.7836Y-1.2186Z-0.0665;
N615X0.7824Y-1.2177Z-0.0642;
N616X0.7816Y-1.2172Z-0.0615;
N617X0.7814Y-1.217Z-0.0588;
N618G0Z0.5;
N619X1.5006Y-1.237;
N620Z0.0394;
N621G1Z-0.0588F13.3333;
N622X1.5009Y-1.2372Z-0.0615;
N623X1.5016Y-1.2377Z-0.0642;
N624X1.5028Y-1.2386Z-0.0665;
N625X1.5044Y-1.2398Z-0.0685;
N626X1.5063Y-1.2412Z-0.07;
N627X1.5084Y-1.2428Z-0.0709;
N628X1.5106Y-1.2445Z-0.0712;
N629X1.5206Y-1.252F40.;
N630G3X1.5381Y-1.2495R0.0125;
N631X1.4861Y-1.2105R0.0325;
N632X1.5381Y-1.2495R0.0325;
N633X1.5356Y-1.232R0.0125;
N634G1X1.5256Y-1.2245;
N635X1.5234Y-1.2228Z-0.0709;
N636X1.5213Y-1.2212Z-0.07;
N637X1.5194Y-1.2198Z-0.0685;
N638X1.5178Y-1.2186Z-0.0665;
N639X1.5166Y-1.2177Z-0.0642;
N640X1.5159Y-1.2172Z-0.0615;
N641X1.5156Y-1.217Z-0.0588;
N642G0Z1.;
(END OF SECTION)
N643M9;
N644M5;
G91G30Z0.0
M30
%
